tools/download-figma-icons/icons/outlined-medium/surface-100.svg

<svg width="24" height="24" viewBox="0 0 24 24" fill="none" xmlns="http://www.w3.org/2000/svg">
<path d="M12.0345 18.7498C11.9137 18.7498 11.793 18.7206 11.682 18.6621L0.3975 12.6621C0.153 12.5316 0 12.2766 0 11.9991C0 11.7216 0.15375 11.4673 0.39975 11.3368L11.6805 5.33831C11.9018 5.22056 12.1665 5.22056 12.3878 5.33831L23.6033 11.3383C23.847 11.4688 23.9993 11.7231 23.9993 11.9998C23.9993 12.2766 23.847 12.5308 23.6033 12.6613L12.3878 18.6613C12.2775 18.7206 12.156 18.7498 12.0345 18.7498ZM2.35125 12.0013L12.0338 17.1493L21.66 11.9991L12.0345 6.84956L2.35125 12.0013Z" fill="black"/>
</svg>

<svg xmlns="http://www.w3.org/2000/svg" width="24" height="24" fill="none" viewBox="0 0 24 24"><path fill="currentColor" d="M12.035 18.75a.76.76 0 0 1-.353-.088l-11.284-6A.752.752 0 0 1 .4 11.337l11.28-5.999a.75.75 0 0 1 .708 0l11.215 6a.75.75 0 0 1 0 1.323l-11.215 6a.75.75 0 0 1-.354.089M2.35 12l9.683 5.148L21.66 12l-9.625-5.15z"/></svg>
